X:8
T:Brenda Stubbert's
R:reel
C:Jerry Holland
Z:Mary Lou Knack
R:reel
M:4/4
L:1/8
K:ADor
B | A/A/ABA GAAB | A/A/ABA edde | G/G/GBA BGGB | c2BA BGGB |
A/A/ABA GAAB | A/A/ABA edda | gedB GABd | e2dB eAA :|
B | A/A/Aa2 A/A/A g2 | Aage ageg | G/G/GBA BGGB | c2BA BGGB |
A/A/Aa2 A/A/Ag2 | Aage agea | gedB GABd | e2dB eAAB |
A/A/Aa2 A/A/Ag2 | Aage ageg | G/G/GBA BGGB| c2BA BGGB |
A/A/ABA GAAB | A/A/ABA edda | gedB GABd | e2dB eAA |]
